modules/hawcons-stroke/icons/cloud-raindrops.svg

<?xml version="1.0" encoding="UTF-8" standalone="no"?>
<svg width="32px" height="32px" viewBox="0 0 32 32" version="1.1" xmlns="http://www.w3.org/2000/svg" xmlns:xlink="http://www.w3.org/1999/xlink" xmlns:sketch="http://www.bohemiancoding.com/sketch/ns">
    <!-- Generator: Sketch 3.0.3 (7891) - http://www.bohemiancoding.com/sketch -->
    <title>icon 14 cloud raindrops</title>
    <desc>Created with Sketch.</desc>
    <defs></defs>
    <g id="Page-1" stroke="none" stroke-width="1" fill="none" fill-rule="evenodd" sketch:type="MSPage">
        <g id="icon-14-cloud-raindrops" sketch:type="MSArtboardGroup" fill="#929292">
            <path d="M7.10100919,15.1021544 C5.32460991,15.5117359 4,17.1046097 4,19 C4,21.209139 5.79793835,23 8.00281647,23 L24.9971835,23 C27.207878,23 29,21.2046438 29,19 C29,17.1225574 27.70144,15.5472159 25.9581226,15.1164746 L25.9581226,15.1164746 C25.9857342,14.9149284 26,14.7091302 26,14.5 C26,12.0147185 23.9852815,10 21.5,10 C20.2744589,10 19.1633432,10.489913 18.3518132,11.2845787 C17.3608691,9.33540592 15.336385,8 13,8 C9.68629134,8 7,10.6862913 7,14 C7,14.3764904 7.03467626,14.7448817 7.10100919,15.1021544 L7.10100919,15.1021544 Z M26.9993494,14.4145295 C28.7676457,15.1852931 30,16.9483386 30,19 C30,21.7558048 27.7616745,24 25.0005601,24 L7.99943992,24 C5.23249418,24 3,21.7614237 3,19 C3,16.9491311 4.23965876,15.1816085 6.01189661,14.4115388 L6.01189661,14.4115388 C6.00400207,14.275367 6,14.1381509 6,14 C6,10.1340066 9.13400656,7 13,7 C15.2979469,7 17.3372745,8.10728055 18.6135384,9.81739735 C19.4525719,9.29909701 20.441357,9 21.5,9 C24.5090248,9 26.9536744,11.4163763 26.9993494,14.4145295 L26.9993494,14.4145295 L26.9993494,14.4145295 Z M7,28.8571429 C7.00000081,27.4135338 9.51053481,25 9.51053481,25 C9.51053481,25 11.9999999,27.4135338 12,28.8571429 C12,29.8857247 11.1872547,30.9999997 9.51053481,31 C7.83381492,31.0000003 6.99999942,29.9714181 7,28.8571429 L7,28.8571429 Z M8.00952148,28.7999878 C8.00952145,28.1000061 9.51053476,26.4788818 9.51053476,26.4788818 C9.51053476,26.4788818 11.0125732,28.1000061 11.0125732,28.7999878 C11.0125732,29.5522156 10.3431396,29.9999998 9.51053481,30 C8.67792997,30.0000001 8.00952154,29.6747437 8.00952148,28.7999878 L8.00952148,28.7999878 Z M14,29.8571429 C14.0000008,28.4135338 16.5105348,26 16.5105348,26 C16.5105348,26 18.9999999,28.4135338 19,29.8571429 C19,30.8857247 18.1872547,31.9999997 16.5105348,32 C14.8338149,32.0000003 13.9999994,30.9714181 14,29.8571429 L14,29.8571429 Z M15.0095215,29.7999878 C15.0095215,29.1000061 16.5105348,27.4788818 16.5105348,27.4788818 C16.5105348,27.4788818 18.0125732,29.1000061 18.0125732,29.7999878 C18.0125732,30.5522156 17.3431396,30.9999998 16.5105348,31 C15.67793,31.0000001 15.0095215,30.6747437 15.0095215,29.7999878 L15.0095215,29.7999878 Z M21,28.8571429 C21.0000008,27.4135338 23.5105348,25 23.5105348,25 C23.5105348,25 25.9999999,27.4135338 26,28.8571429 C26,29.8857247 25.1872547,30.9999997 23.5105348,31 C21.8338149,31.0000003 20.9999994,29.9714181 21,28.8571429 L21,28.8571429 Z M22.0095215,28.7999878 C22.0095215,28.1000061 23.5105348,26.4788818 23.5105348,26.4788818 C23.5105348,26.4788818 25.0125732,28.1000061 25.0125732,28.7999878 C25.0125732,29.5522156 24.3431396,29.9999998 23.5105348,30 C22.67793,30.0000001 22.0095215,29.6747437 22.0095215,28.7999878 L22.0095215,28.7999878 Z" id="cloud-raindrops" sketch:type="MSShapeGroup"></path>
        </g>
    </g>
</svg>

<svg width="32" height="32" viewBox="0 0 32 32" xmlns="http://www.w3.org/2000/svg"><path d="M7.101 15.102A4.006 4.006 0 0 0 4 19c0 2.21 1.798 4 4.003 4h16.994A4.004 4.004 0 0 0 29 19a4.006 4.006 0 0 0-3.042-3.884 4.5 4.5 0 0 0-7.606-3.832 6 6 0 0 0-11.25 3.818H7.1zm19.898-.687C28.768 15.185 30 16.948 30 19c0 2.756-2.238 5-5 5H8c-2.768 0-5-2.239-5-5 0-2.05 1.24-3.818 3.012-4.588a7 7 0 0 1 12.602-4.594A5.5 5.5 0 0 1 27 14.414zM7 28.857C7 27.414 9.51 25 9.51 25S12 27.414 12 28.857C12 29.886 11.187 31 9.51 31 7.835 31 7 29.971 7 28.857zm1.01-.057c0-.7 1.5-2.321 1.5-2.321s1.503 1.621 1.503 2.321c0 .752-.67 1.2-1.502 1.2-.833 0-1.501-.325-1.501-1.2zM14 29.857C14 28.414 16.51 26 16.51 26S19 28.414 19 29.857C19 30.886 18.187 32 16.51 32 14.835 32 14 30.971 14 29.857zm1.01-.057c0-.7 1.5-2.321 1.5-2.321s1.503 1.621 1.503 2.321c0 .752-.67 1.2-1.502 1.2-.833 0-1.501-.325-1.501-1.2zm5.99-.943C21 27.414 23.51 25 23.51 25S26 27.414 26 28.857C26 29.886 25.187 31 23.51 31 21.835 31 21 29.971 21 28.857zm1.01-.057c0-.7 1.5-2.321 1.5-2.321s1.503 1.621 1.503 2.321c0 .752-.67 1.2-1.502 1.2-.833 0-1.501-.325-1.501-1.2z" fill="#929292" fill-rule="evenodd"/></svg>
